packages/bezier-icons/icons/error.svg

<svg width="24" height="24" viewBox="0 0 24 24" fill="none" xmlns="http://www.w3.org/2000/svg">
<path fill-rule="evenodd" clip-rule="evenodd" d="M21.9997 12.0001C21.9997 6.48611 17.5147 2.00011 11.9997 2.00011C6.48569 2.00011 1.99969 6.48611 1.99969 12.0001C1.99969 17.5141 6.48569 22.0001 11.9997 22.0001C17.5147 22.0001 21.9997 17.5141 21.9997 12.0001ZM3.99969 12.0001C3.99969 7.59068 7.59026 4.00011 11.9997 4.00011C16.4097 4.00011 19.9997 7.5903 19.9997 12.0001C19.9997 16.4099 16.4097 20.0001 11.9997 20.0001C7.59026 20.0001 3.99969 16.4095 3.99969 12.0001ZM11.9333 15.5953C11.2033 15.5953 10.6113 16.1873 10.6113 16.9183C10.6113 17.6483 11.2033 18.2403 11.9333 18.2403C12.6633 18.2403 13.2563 17.6483 13.2563 16.9183C13.2563 16.1873 12.6633 15.5953 11.9333 15.5953ZM13.1473 5.9799L13.0143 13.9869H10.8523L10.7203 5.9799H13.1473Z" fill="#313234"/>
</svg>

<svg xmlns="http://www.w3.org/2000/svg" width="24" height="24" fill="none" viewBox="0 0 24 24"><path fill="#313234" fill-rule="evenodd" d="M22 12c0-5.514-4.485-10-10-10S2 6.486 2 12s4.486 10 10 10 10-4.486 10-10M4 12c0-4.41 3.59-8 8-8s8 3.59 8 8-3.59 8-8 8-8-3.59-8-8m7.933 3.595a1.322 1.322 0 1 0 .001 2.645 1.322 1.322 0 0 0 0-2.645m1.214-9.615-.133 8.007h-2.162L10.72 5.98z" clip-rule="evenodd"/></svg>
